X:2947
T:Ytterst mot norden
C:anon.
O:Norway
Z:Transcribed by Frank Nordberg - http://www.musicaviva.com
F:http://abc.musicaviva.com/tunes/norway/ytterst-mot-norden/ytterst-mot-norden-1.abc
M:C
L:1/8
K:F#m
F2F>GA2(G>F)|(A>G) (A>B)c4|d2c>Bc2B>A|
G2G4z2|A2A>BG2G>^E|F>^E F>A c4|A2G>FC2D>C|
F2F4z2|F2F>GA2(BB)|c2C>DC2A>A|A4HG4|]
W:
W:
W:  From Musica Viva - http://www.musicaviva.com
W:  the Internet center for free sheet music downloads.

